svgs/sharp-regular/table.svg

<svg xmlns="http://www.w3.org/2000/svg" viewBox="0 0 512 512"><!--! Font Awesome Pro 6.6.0 by @fontawesome - https://fontawesome.com License - https://fontawesome.com/license (Commercial License) Copyright 2024 Fonticons, Inc. --><path d="M48 264l0-104 184 0 0 104L48 264zm0 48l184 0 0 120L48 432l0-120zM280 432l0-120 184 0 0 120-184 0zM464 264l-184 0 0-104 184 0 0 104zM48 32L0 32 0 80 0 432l0 48 48 0 416 0 48 0 0-48 0-352 0-48-48 0L48 32z"/></svg>

<svg xmlns="http://www.w3.org/2000/svg" viewBox="0 0 512 512"><!--! Font Awesome Pro 6.4.0 by @fontawesome - https://fontawesome.com License - https://fontawesome.com/license (Commercial License) Copyright 2023 Fonticons, Inc. --><path d="M48 264V160H232V264H48zm0 48H232V432H48V312zM280 432V312H464V432H280zM464 264H280V160H464V264zM48 32H0V80 432v48H48 464h48V432 80 32H464 48z"/></svg>
